src/icons/warning-outline.svg

<svg viewBox="0 0 20 20" fill="none" xmlns="http://www.w3.org/2000/svg">
<path d="M10 20C15.4695 20 20 15.4792 20 10C20 4.53049 15.4695 0 9.99032 0C4.52081 0 0 4.53049 0 10C0 15.4792 4.53049 20 10 20ZM10 18.0348C5.54695 18.0348 1.97483 14.453 1.97483 10C1.97483 5.54695 5.53727 1.97483 9.99032 1.97483C14.4434 1.97483 18.0252 5.54695 18.0348 10C18.0348 14.453 14.453 18.0348 10 18.0348Z" fill="currentColor"/>
<path d="M10.0266 11.3376C10.5051 11.3376 10.7748 11.0679 10.7922 10.5633L10.8574 8.471L10.9227 6.37869C10.9401 5.86539 10.5573 5.5 10.0179 5.5C9.47849 5.5 9.1044 5.85669 9.1218 6.36999L9.2436 10.572C9.26099 11.0679 9.53939 11.3376 10.0266 11.3376ZM10.0266 14.226C10.5921 14.226 11.0532 13.8171 11.0532 13.269C11.0532 12.7122 10.5921 12.312 10.0266 12.312C9.46109 12.312 9 12.7209 9 13.269C9 13.8171 9.46979 14.226 10.0266 14.226Z" fill="currentColor"/>
</svg>

<svg viewBox="0 0 20 20" fill="none" xmlns="http://www.w3.org/2000/svg"><path d="M10 20c5.47 0 10-4.52 10-10C20 4.53 15.47 0 9.99 0 4.52 0 0 4.53 0 10c0 5.48 4.53 10 10 10zm0-1.965A8.007 8.007 0 0 1 1.975 10 7.99 7.99 0 0 1 9.99 1.975 8.021 8.021 0 0 1 18.035 10 8.015 8.015 0 0 1 10 18.035z" fill="currentColor"/><path d="M10.027 11.338c.478 0 .748-.27.765-.775l.065-2.092.066-2.092c.017-.514-.366-.879-.905-.879-.54 0-.914.357-.896.87l.122 4.202c.017.496.295.766.783.766zm0 2.888c.565 0 1.026-.409 1.026-.957 0-.557-.46-.957-1.026-.957-.566 0-1.027.409-1.027.957s.47.957 1.027.957z" fill="currentColor"/></svg>
